src/assets/img/layout/web.svg

<svg xmlns="http://www.w3.org/2000/svg" viewBox="0 0 245.2 245">
  <path d="M243.9 114.6A121.8 121.8 0 0 0 130.7 1.1h-16.2A122.2 122.2 0 0 0 1.1 114.6l.3 16.2a121.1 121.1 0 0 0 113.1 113.1h16.2a121.3 121.3 0 0 0 113.2-113.2v-16.1zM77.1 27.4a132 132 0 0 0-19.2 38.3H33.7a105.8 105.8 0 0 1 43.4-38.3zM25.3 81.9h28.4a187.7 187.7 0 0 0-3.9 32.3H17.5a109 109 0 0 1 7.8-32.3zm-7.8 48.8h32.3c.3 11.4 1.8 22.2 3.9 32.3H25.3a105.4 105.4 0 0 1-7.8-32.3zm16.2 48.5H58c4.8 15 11.4 27.8 19.2 38.3a102 102 0 0 1-43.5-38.3zm80.8 47.9c-16.8-4.5-31.1-22.5-39.8-47.6h39.8v47.6zm0-64H70.2c-2.4-10.2-3.6-21-4.2-32.3h48.5v32.3zm0-48.5H66c.6-11.4 1.8-22.5 4.2-32.3h44.3v32.3zm0-48.8H74.7c8.7-25.2 23.1-43.1 39.8-47.6v47.6zm97 0h-24.3c-4.8-15-11.4-27.8-19.2-38.3a103.5 103.5 0 0 1 43.5 38.3zm-80.8-47.6c16.8 4.5 31.1 22.5 39.8 47.6h-39.8V18.2zm0 63.7H175c2.4 10.2 3.6 21 4.2 32.3h-48.5V81.9zm0 48.8h48.5c-.6 11.4-1.8 22.5-4.2 32.3h-44.3v-32.3zm0 96.4v-47.9h39.8c-8.7 25.5-23 43.5-39.8 47.9zm37.4-9.2a132 132 0 0 0 19.2-38.3h24.3a108.2 108.2 0 0 1-43.5 38.3zm51.8-54.8h-28.4c2.1-10.2 3.6-21.3 3.9-32.3h32.3c-.9 11.3-3.6 22.1-7.8 32.3zm-24.5-48.5c-.3-11.4-1.8-22.2-3.9-32.3h28.4c4.2 10.2 6.9 21 7.8 32.3h-32.3z"/>
</svg>

<svg xmlns="http://www.w3.org/2000/svg" xmlns:xlink="http://www.w3.org/1999/xlink" x="0px" y="0px" style="enable-background:new 0 0 245.2 245" version="1.1" viewBox="0 0 245.2 245" xml:space="preserve">
        <path d="M243.9,114.6C240,53.8,191.5,5.3,130.7,1.1h-16.2C53.8,5.3,5.2,53.8,1.1,114.6l0,0l0.3,16.2
		C5.2,191.5,53.8,240,114.5,243.9h16.2c60.8-3.9,109.3-52.4,113.2-113.2V114.6L243.9,114.6z M77.1,27.4
		c-7.8,10.5-14.4,23.4-19.2,38.3H33.7C44.2,49.3,59.4,35.8,77.1,27.4z M25.3,81.9h28.4c-2.1,10.2-3.6,21.3-3.9,32.3H17.5
		C18.4,103.2,21.1,92.1,25.3,81.9z M17.5,130.7h32.3c0.3,11.4,1.8,22.2,3.9,32.3H25.3C21.1,152.9,18.4,142.1,17.5,130.7z
		 M33.7,179.2h24.3c4.8,15,11.4,27.8,19.2,38.3C59.4,209.2,44.2,196,33.7,179.2z M114.5,227.1c-16.8-4.5-31.1-22.5-39.8-47.6h39.8
		V227.1z M114.5,163.1H70.2c-2.4-10.2-3.6-21-4.2-32.3h48.5C114.5,130.7,114.5,163.1,114.5,163.1z M114.5,114.6H66
		c0.6-11.4,1.8-22.5,4.2-32.3h44.3V114.6z M114.5,65.8H74.7c8.7-25.2,23.1-43.1,39.8-47.6V65.8z M211.5,65.8h-24.3
		c-4.8-15-11.4-27.8-19.2-38.3C185.8,35.8,201.1,49.3,211.5,65.8z M130.7,18.2c16.8,4.5,31.1,22.5,39.8,47.6h-39.8V18.2z
		 M130.7,81.9H175c2.4,10.2,3.6,21,4.2,32.3h-48.5V81.9z M130.7,130.7h48.5c-0.6,11.4-1.8,22.5-4.2,32.3h-44.3V130.7z M130.7,227.1
		v-47.9h39.8C161.8,204.7,147.5,222.7,130.7,227.1z M168.1,217.9c7.8-10.5,14.4-23.4,19.2-38.3h24.3
		C201.1,196,185.8,209.2,168.1,217.9z M219.9,163.1h-28.4c2.1-10.2,3.6-21.3,3.9-32.3h32.3C226.8,142.1,224.1,152.9,219.9,163.1z
		 M195.4,114.6c-0.3-11.4-1.8-22.2-3.9-32.3h28.4c4.2,10.2,6.9,21,7.8,32.3H195.4z"/>
</svg>
